X: 6
T: The New Custom House
R: reel
M: 4/4
L: 1/8
K: Ddor
FG|: A2DE FGAB | cAGE CDEG | A2DE FGAB | cAdB cAGE |
ADDD FGAB | c2GE CDEG | Addc d2cd | cAGE EDD2 :|
|: Addc (3ded cd | edcd egge | Addc d2cd | eAag edcd |
Addc d2 cd | edcd egg2 | a3g egdc | cAGE EDD2 :|


Tune 175	Setting 12818

